_site/assets/img/techstack/ansible 6.svg

<svg width="150" height="100" viewBox="0 0 150 100" fill="none" xmlns="http://www.w3.org/2000/svg">
<path d="M118.594 50C118.594 74.0469 99.0469 93.5938 75 93.5938C50.9531 93.5938 31.4062 74.0469 31.4062 50C31.4062 25.9531 50.9531 6.40625 75 6.40625C99.0469 6.40625 118.594 25.9531 118.594 50Z" fill="#1A1918"/>
<path d="M75.7031 33.0547L86.9531 60.8984L70.0078 47.4688L75.7031 33.0547ZM95.7422 67.2969L78.4453 25.5313C77.9531 24.3359 76.9687 23.7031 75.7734 23.7031C74.5781 23.7031 73.5234 24.3359 73.0312 25.5313L53.9062 71.3047H60.4453L67.9687 52.4609L90.4687 70.6719C91.3828 71.375 92.0156 71.7266 92.8594 71.7266C94.5469 71.7266 96.0234 70.4609 96.0234 68.6328C96.0937 68.2812 95.9531 67.7891 95.7422 67.2969Z" fill="white"/>
</svg>

<svg width="150" height="100" fill="none" xmlns="http://www.w3.org/2000/svg"><path d="M118.594 50c0 24.047-19.547 43.594-43.594 43.594S31.406 74.047 31.406 50 50.953 6.406 75 6.406 118.594 25.953 118.594 50z" fill="#1A1918"/><path d="M75.703 33.055l11.25 27.843-16.945-13.43 5.695-14.413zm20.04 34.242L78.444 25.53c-.492-1.195-1.476-1.828-2.672-1.828-1.195 0-2.25.633-2.742 1.828L53.906 71.305h6.54l7.523-18.844 22.5 18.21c.914.704 1.547 1.056 2.39 1.056 1.688 0 3.164-1.266 3.164-3.094.07-.352-.07-.844-.28-1.336z" fill="#fff"/></svg>
